Catalina-dark/actions/16/kr_comparedirs.svg

<?xml version="1.0" encoding="UTF-8" standalone="no"?>
<svg
   xmlns:dc="http://purl.org/dc/elements/1.1/"
   xmlns:cc="http://creativecommons.org/ns#"
   xmlns:rdf="http://www.w3.org/1999/02/22-rdf-syntax-ns#"
   xmlns:svg="http://www.w3.org/2000/svg"
   xmlns="http://www.w3.org/2000/svg"
   xmlns:sodipodi="http://sodipodi.sourceforge.net/DTD/sodipodi-0.dtd"
   xmlns:inkscape="http://www.inkscape.org/namespaces/inkscape"
   width="16"
   height="16"
   viewBox="0 0 16 16"
   version="1.1"
   id="svg7"
   sodipodi:docname="kr_comparedirs.svg"
   inkscape:version="0.92.4 5da689c313, 2019-01-14">
  <metadata
     id="metadata11">
    <rdf:RDF>
      <cc:Work
         rdf:about="">
        <dc:format>image/svg+xml</dc:format>
        <dc:type
           rdf:resource="http://purl.org/dc/dcmitype/StillImage" />
      </cc:Work>
    </rdf:RDF>
  </metadata>
  <sodipodi:namedview
     pagecolor="#ffffff"
     bordercolor="#666666"
     borderopacity="1"
     objecttolerance="10"
     gridtolerance="10"
     guidetolerance="10"
     inkscape:pageopacity="0"
     inkscape:pageshadow="2"
     inkscape:window-width="640"
     inkscape:window-height="480"
     id="namedview9"
     showgrid="false"
     inkscape:zoom="14.75"
     inkscape:cx="6.8135593"
     inkscape:cy="8"
     inkscape:window-x="0"
     inkscape:window-y="26"
     inkscape:window-maximized="0"
     inkscape:current-layer="svg7" />
  <defs
     id="defs3">
    <style
       id="current-color-scheme"
       type="text/css">
   .ColorScheme-Text { color:#5c616c; } .ColorScheme-Highlight { color:#5294e2; }
  </style>
  </defs>
  <path
     style="fill:#f1f6f8;fill-opacity:0.8509804"
     class="ColorScheme-Text"
     d="M 3.5 1 C 2.131 1 1 2.1312 1 3.5 L 1 3.5019531 C 1.001 4.2647531 1.4294 4.8839094 2 5.3496094 L 2 11 C 2 12.645 3.3548 14 5 14 C 4.9998 14.564 5.4655969 15.016 6.0292969 15 C 6.2353969 14.994 6.4346094 14.923781 6.5996094 14.800781 L 8.5996094 13.300781 C 9.1326094 12.900781 9.1326094 12.101172 8.5996094 11.701172 L 6.5996094 10.201172 C 5.9458094 9.7115719 5.0125 10.170328 5 10.986328 L 5 5.3496094 C 5.5709 4.8839094 5.9989 4.2649531 6 3.5019531 L 6 3.5 C 6 2.1312 4.869 1 3.5 1 z M 9.9707031 1 C 9.7646031 1.006 9.5653906 1.0756188 9.4003906 1.1992188 L 7.4003906 2.6992188 C 6.8673906 3.0993188 6.8673906 3.8988281 7.4003906 4.2988281 L 9.4003906 5.7988281 C 10.053991 6.2886281 10.988 5.8303719 11 5.0136719 L 11 10.650391 C 10.429 11.116391 10.001 11.735047 10 12.498047 L 10 12.5 C 10 13.869 11.131 15 12.5 15 C 13.869 15 15 13.869 15 12.5 L 15 12.498047 C 14.999 11.735047 14.571 11.116391 14 10.650391 L 14 5 C 14 3.355 12.645 2 11 2 C 11 1.4361 10.534003 0.9835 9.9707031 1 z"
     id="path5" />
</svg>

<svg width="16" height="16" version="1.1" viewBox="0 0 16 16" xmlns="http://www.w3.org/2000/svg">
<defs>
<style id="current-color-scheme" type="text/css">.ColorScheme-Text { color:#5c616c; } .ColorScheme-Highlight { color:#5294e2; }</style>
</defs>
<path class="ColorScheme-Text" d="m3.5 1c-1.369 0-2.5 1.1312-2.5 2.5v0.0019531c1e-3 0.7628 0.4294 1.382 1 1.8477v5.6504c0 1.645 1.3548 3 3 3-2e-4 0.564 0.4656 1.016 1.0293 1 0.2061-6e-3 0.40531-0.076219 0.57031-0.19922l2-1.5c0.533-0.4 0.533-1.1996 0-1.5996l-2-1.5c-0.6538-0.4896-1.5871-0.030844-1.5996 0.78516v-5.6367c0.5709-0.4657 0.9989-1.0847 1-1.8477v-0.0019531c0-1.3688-1.131-2.5-2.5-2.5zm6.4707 0c-0.2061 6e-3 -0.40531 0.075619-0.57031 0.19922l-2 1.5c-0.533 0.4001-0.533 1.1996 0 1.5996l2 1.5c0.6536 0.4898 1.5876 0.031544 1.5996-0.78516v5.6367c-0.571 0.466-0.999 1.0847-1 1.8477v0.001953c0 1.369 1.131 2.5 2.5 2.5s2.5-1.131 2.5-2.5v-0.001953c-1e-3 -0.763-0.429-1.3817-1-1.8477v-5.6504c0-1.645-1.355-3-3-3 0-0.5639-0.466-1.0165-1.0293-1z" fill="#f1f6f8" fill-opacity=".85098"/>
</svg>
